X: 3370
T: Ben's Brogues
R: jig
M: 6/8
K: Gmajor
G,3 G,B,C|DGG GAB|G,B,/A,/G, G,B,D|EDB, DB,A,|
G,3 G,A,B,|DB,D GAB|cdc BAG|1 AGE DB,G:|2 BGE DB,D||
|:E3 ~B3|EBE FED|~E3 EDE|GFE DB,D|
(E3 E)DE|GDG BGB|ded cBA|BAG A^FD:|
|:GBd dBA|GBd d2B|G3 GBd|eAB cBA|
GBd dBd|dBd dBd|edB cBA|1 BGE DB,D:|2 BGE DB,G||

